usr/share/icons/biglinux-icons-material/symbolic/actions/strong-language-symbolic.svg

<svg width="16px" height="16px" version="1.1">
 <path d="m4 2v3h-2v1h2v4h-2v1h2v3h1v-3h4v3h1v-3h2v-1h-2v-4h2v-1h-2v-3h-1v3h-4v-3h-1zm9.5 0c-0.277 0-0.5 0.223-0.5 0.5v9c0 0.277 0.223 0.5 0.5 0.5s0.5-0.223 0.5-0.5v-9c0-0.277-0.223-0.5-0.5-0.5zm-8.5 4h4v4h-4v-4zm8.5 7a0.5 0.5 0 0 0-0.5 0.5 0.5 0.5 0 0 0 0.5 0.5 0.5 0.5 0 0 0 0.5-0.5 0.5 0.5 0 0 0-0.5-0.5z" fill="#363636"/>
</svg>

<svg width="16" height="16"><path fill="#dedede" d="M4 2v3H2v1h2v4H2v1h2v3h1v-3h4v3h1v-3h2v-1h-2V6h2V5h-2V2H9v3H5V2H4zm9.5 0c-.277 0-.5.223-.5.5v9a.499.499 0 1 0 1 0v-9c0-.277-.223-.5-.5-.5zM5 6h4v4H5V6zm8.5 7a.5.5 0 0 0-.5.5.5.5 0 0 0 .5.5.5.5 0 0 0 .5-.5.5.5 0 0 0-.5-.5z"/></svg>
